newicons/okko.svg

<?xml version="1.0" encoding="UTF-8" standalone="no"?>
<svg
   viewBox="0 0 48 48"
   version="1.1"
   id="svg1"
   sodipodi:docname="okko.svg"
   inkscape:version="1.2.2 (b0a8486541, 2022-12-01)"
   xml:space="preserve"
   xmlns:inkscape="http://www.inkscape.org/namespaces/inkscape"
   xmlns:sodipodi="http://sodipodi.sourceforge.net/DTD/sodipodi-0.dtd"
   xmlns="http://www.w3.org/2000/svg"
   xmlns:svg="http://www.w3.org/2000/svg"><sodipodi:namedview
     id="namedview1"
     pagecolor="#505050"
     bordercolor="#eeeeee"
     borderopacity="1"
     inkscape:showpageshadow="0"
     inkscape:pageopacity="0"
     inkscape:pagecheckerboard="0"
     inkscape:deskcolor="#505050"
     inkscape:zoom="17.8125"
     inkscape:cx="18.863158"
     inkscape:cy="24.02807"
     inkscape:window-width="1918"
     inkscape:window-height="1053"
     inkscape:window-x="0"
     inkscape:window-y="0"
     inkscape:window-maximized="1"
     inkscape:current-layer="svg1"
     showgrid="false" /><defs
     id="defs1"><style
       id="style1">.a { fill:none;stroke:#fff;stroke-linecap:round;stroke-linejoin:round; }
</style></defs><path
     style="fill:none;stroke:#ffffff;stroke-width:1;stroke-linecap:round;stroke-linejoin:round;stop-color:#000000;stroke-opacity:1"
     d="M 38.997191,28.535316 A 14.997191,14.964684 0 0 1 24.000002,43.500001 14.997191,14.964684 0 0 1 9.0028093,28.535316 14.997191,14.964684 0 0 1 24.000002,13.570632 14.997191,14.964684 0 0 1 38.997191,28.535316 Z"
     id="path18417" /><path
     style="fill:none;stroke:#ffffff;stroke-width:1;stroke-linecap:round;stroke-linejoin:round;stop-color:#000000;stroke-opacity:1"
     d="M 26.76989,7.2638841 A 2.7698894,2.7638856 0 0 1 24.000002,10.027769 2.7698894,2.7638856 0 0 1 21.230111,7.2638841 2.7698894,2.7638856 0 0 1 24.000002,4.4999988 2.7698894,2.7638856 0 0 1 26.76989,7.2638841 Z"
     id="path18415" /><path
     style="fill:none;stroke:#ffffff;stroke-width:1;stroke-linecap:round;stroke-linejoin:round;stop-color:#000000;stroke-opacity:1"
     d="m 17.801433,7.2638841 a 2.7698894,2.7638856 0 0 1 -2.769889,2.7638849 2.7698894,2.7638856 0 0 1 -2.76989,-2.7638849 2.7698894,2.7638856 0 0 1 2.76989,-2.7638853 2.7698894,2.7638856 0 0 1 2.769889,2.7638853 z"
     id="path18413" /><path
     style="fill:none;stroke:#ffffff;stroke-width:1;stroke-linecap:round;stroke-linejoin:round;stop-color:#000000;stroke-opacity:1"
     d="m 35.738343,7.2638841 a 2.7698894,2.7638856 0 0 1 -2.769889,2.7638849 2.7698894,2.7638856 0 0 1 -2.76989,-2.7638849 2.7698894,2.7638856 0 0 1 2.76989,-2.7638853 2.7698894,2.7638856 0 0 1 2.769889,2.7638853 z"
     id="path18411" /><path
     style="fill:none;stroke:#ffffff;stroke-width:1;stroke-linecap:round;stroke-linejoin:round;stop-color:#000000;stroke-opacity:1"
     d="m 33.226403,28.535316 a 9.2264024,9.206404 0 0 1 -9.226401,9.206405 9.2264024,9.206404 0 0 1 -9.226402,-9.206405 9.2264024,9.206404 0 0 1 9.226402,-9.206404 9.2264024,9.206404 0 0 1 9.226401,9.206404 z"
     id="circle18371" /></svg>

<?xml version="1.0" encoding="UTF-8"?><svg id="a" xmlns="http://www.w3.org/2000/svg" viewBox="0 0 48 48"><defs><style>.g{fill:none;stroke:#fff;stroke-linecap:round;stroke-linejoin:round;}</style></defs><path id="b" class="g" d="M38.9972,28.5353c0,8.2648-6.7145,14.9647-14.9972,14.9647s-14.9972-6.6999-14.9972-14.9647h0c0-8.2648,6.7145-14.9647,14.9972-14.9647h0c8.2827,0,14.9972,6.6999,14.9972,14.9647Z"/><path id="c" class="g" d="M26.7699,7.2639c0,1.5265-1.2401,2.7639-2.7699,2.7639s-2.7699-1.2374-2.7699-2.7639h0c0-1.5265,1.2401-2.7639,2.7699-2.7639h0c1.5298,0,2.7699,1.2374,2.7699,2.7639Z"/><path id="d" class="g" d="M17.8014,7.2639c0,1.5265-1.2401,2.7639-2.7699,2.7639s-2.7699-1.2374-2.7699-2.7639c0-1.5265,1.2401-2.7639,2.7699-2.7639h0c1.5298,0,2.7699,1.2374,2.7699,2.7639Z"/><path id="e" class="g" d="M35.7383,7.2639c0,1.5265-1.2401,2.7639-2.7699,2.7639h0c-1.5298,0-2.7699-1.2374-2.7699-2.7639s1.2401-2.7639,2.7699-2.7639h0c1.5298,0,2.7699,1.2374,2.7699,2.7639h0Z"/><path id="f" class="g" d="M33.2264,28.5353c0,5.0846-4.1308,9.2064-9.2264,9.2064h0c-5.0956,0-9.2264-4.1218-9.2264-9.2064h0c0-5.0846,4.1308-9.2064,9.2264-9.2064h0c5.0956,0,9.2264,4.1218,9.2264,9.2064h0Z"/></svg>
